app/dist/common/images/paratek.svg

<svg height="18" width="18" xmlns="http://www.w3.org/2000/svg"><path d="m0 0h18v18h-18z" fill="#0a3f83"/><path d="m9 4v1l3 1.33v1l-3-1.33v1l3 1.33v1.34l-3 1.33v1l3-1.33v1l-3 1.33v1l4-1.67v-6.66z" fill="#fff"/><path d="m9 4v1l-3 1.33v1l3-1.33v1l-3 1.33v1.34l3 1.33v1l-3-1.33v1l3 1.33v1l-4-1.67v-6.66z" fill="#ed8b00"/></svg>

<!-- by TradingView --><svg xmlns="http://www.w3.org/2000/svg" width="18" height="18"><path fill="#0A3F83" d="M0 0h18v18H0z"/><path d="M9 4v1l3 1.33v1L9 6v1l3 1.33v1.34L9 11v1l3-1.33v1L9 13v1l4-1.67V5.67L9 4z" fill="#fff"/><path d="M9 4v1L6 6.33v1L9 6v1L6 8.33v1.34L9 11v1l-3-1.33v1L9 13v1l-4-1.67V5.67L9 4z" fill="#ED8B00"/></svg>
